!!!COM: Charles Ives
!!!OTL: [T242_Ive-w21p4m20i-22]
**kern	**kern	**dynam	**kern	**dynam	**kern	**dynam	**kern	**dynam	**kern	**dynam
*part5	*part5	*part5	*part4	*	*part3	*part3	*part2	*part2	*part1	*part1
*staff6	*staff5	*	*staff4	*	*staff3	*	*staff2	*	*staff1	*
*I"Piano	*	*	*I"Violoncello	*	*I"Viola	*	*I"Violin II	*	*I"Violin I	*
*I'Pno.	*	*	*I'Vc.	*	*I'Vla.	*	*I'Vln. II	*	*I'Vln. I	*
*clefF4	*clefF4	*	*clefF4	*	*clefC3	*	*clefG2	*	*clefG2	*
*k[]	*k[]	*	*k[]	*	*k[]	*	*k[]	*	*k[]	*
*C:	*C:	*	*C:	*	*C:	*	*C:	*	*C:	*
*M2/4	*M2/4	*M2/4	*M6/16	*	*M6/16	*M6/16	*M2/4	*M2/4	*M2/4	*M2/4
*	*	*	*	*	*	*	*	*	*	*
!LO:T:n=1:b	!LO:T:n=1:b	!	!	!	!	!	!	!	!LO:TX:t=[[quarter]=43]	!
!LO:T:n=2:a	!LO:T:n=2:a	!LO:DY:ed=brack	!	!LO:DY:ed=brack	!	!LO:DY:ed=brack	!	!LO:DY:ed=brack	!	!
4CCCnXN_ 4FFF#XN_	4CC#X^^N_ 4BBN_	f	8.GL]	f	[4C [4B	f	8g#XN]	f	8ryy	.
.	.	.	.	.	.	.	4ee	.	4ryy	.
.	.	.	16A-XL	.	.	.	.	.	.	.
*	*	*M2/4	*	*	*	*	*	*	*	*
=	=	=	=-	=	=-	=-	=-	=-	=-	=-
2CCCnX_ 2FFF#X_	2CC#X^^_ 2BB_	f >	16G	.	16CLL] 16B]	.	.	.	.	.
.	.	.	(16BBJJ	.	16cJJ	.	.	.	.	.
*	*	*	*	*	*	*	*	*	*	*
*	*	*	*	*	*	*	*	*	*	*
*	*	*	*	*	*	*	*	*	*	*
!!LO:REH:t=21
=-	=-	=-	=	=-	=	=	=	=	=	=
*	*	*	*M5/4	*	*M5/4	*M5/4	*M6/4	*M6/4	*M6/4	*M6/4
!	!	!	!	!	!	!	!	!	!LO:TX:B:t=21	!
*	*	*	*	*	*	*	*lig	*	*	*
!	!	!	!	!	!	!	!LO:N:vis=5%3	!	!	!
!	!	!	!	!	!	!	!	!	!	!
*	*	*	*	*	*	*	*Xtuplet	*	*	*
!	!	!	!	!	!	!	!	!	!	!
.	.	.	8CL)	.	[4C^^ [4B	ff	10%3cn	ff	1cc#X	ff
.	.	.	8EJ	.	.	.	.	.	.	.
.	.	.	8FL	.	16CKL] 16B]	.	.	.	.	.
!	!	!	!	!	!	!	!LO:N:vis=10%3	!	!	!
.	.	.	.	.	.	.	20%3c#X	.	.	.
.	.	.	.	.	[8.C^^J [8.B	.	.	.	.	.
*	*	*	*	*	*	*	*	*	*	*
=	=	=	=-	=	=-	=-	=-	=-	=-	=-
!	!	!	!	!	!	!	!LO:TX:a:B:t=5	!	!	!
2CCCnX_ 2FFF#X_	2CC#X^^_ 2BB_	f ] >	[8GGJ	.	.	.	.	.	.	.
!	!	!	!	!	!	!	!LO:N:vis=10%3	!	!	!
.	.	.	.	.	.	.	20%3en	.	.	.
.	.	.	8GGL]	.	8CL] 8B]	.	.	.	.	.
!	!	!	!	!	!	!	!LO:N:vis=10%3	!	!	!
.	.	.	.	.	.	.	20%3d	.	.	.
*	*	*	*	*	*	*	*	*	*	*
.	.	.	8CC^^:J [8GG: [8D#X:	.	[8C^^J [8B	.	.	.	.	.
!	!	!	!	!	!	!	!LO:N:vis=10%3	!	!	!
.	.	.	8.CCL 8.GG] 8.D#]	.	8.CL] 8.B]	.	20%3e-X	.	.	.
*	*	*	*	*	*	*	*Xlig	*	*	*
=	=	=	=-	=	=-	=-	=-	=-	=-	=-
2CCCnX_ 2FFF#X_	2CC#X^^_ 2BB_	f ] >	.	.	.	.	.	.	.	.
!	!	!	!	!	!	!	!LO:N:vis=10%3	!	!	!
*	*	*	*	*	*	*	*lig	*	*	*
.	.	.	.	.	.	.	20%3B-X	.	.	.
.	.	.	[16CC^^:Jk [16GG: [16D#:	.	[16C^^Jk [16B	.	.	.	.	.
*	*	*	*	*	*	*	*	*	*	*
!	!	!	!	!	!	!	!LO:TX:a:B:t=5	!	!	!
.	.	.	4CC] 4GG] 4D#]	.	4C] 4B]	.	.	.	2aa#	.
!	!	!	!	!	!	!	!LO:N:vis=10%3	!	!	!
.	.	.	.	.	.	.	20%3Gn	.	.	.
!	!	!	!	!	!	!	!LO:N:vis=5%3	!	!	!
.	.	.	.	.	.	.	[10%3G#X	.	.	.
*	*	*	*	*	*	*	*Xlig	*	*	*
=-	=-	=-	=	=	=	=	=-	=-	=-	=-
.	.	.	[8CC^^:L [8GG: [8D#X:	.	[8C^^L [8B	.	.	.	.	.
=	=	=	=-	=-	=-	=-	=-	=-	=-	=-
2CCCnX_ 2FFF#X_	2CC#X^^_ 2BB_	f ] >	32CCLL] 32GG] 32D#]	.	32CLL] 32B]	.	.	.	.	.
.	.	.	[32CC^^:J [32GG: [32D#:	.	[32C^^J [32B	.	.	.	.	.
.	.	.	16CCJJ_ 16GG_ 16D#_	.	16CJJ_ 16B_	.	.	.	.	.
!	!	!	!	!	!	!	!	!	!	!
!!LO:REH:t=22
=-	=-	=-	=-	=-	=-	=-	=	=	=	=
*	*	*	*	*	*	*	*M4/4	*M4/4	*M9/8	*M9/8
!	!	!	!	!	!	!	!	!	!LO:TX:a:B:t=22	!
.	.	.	16CCKL] 16GG] 16D#]	.	16CKL] 16B]	.	16G#KL]	.	4.aan	.
.	.	.	8CC^^: 8GG: 8D#:	.	8C^^ 8B	.	8G#X^^J 8d 8b-X	.	.	.
.	.	.	32CCLL 32GG 32D#	.	32CLL 32B	.	16r	.	.	.
.	.	.	[32CC^^:JJJ [32GG: [32D#:	.	[32C^^JJJ [32B	.	.	.	.	.
.	.	.	8CCL] 8GG] 8D#]	.	8CL] 8B]	.	8r	.	.	.
=	=	=	=-	=	=-	=-	=-	=-	=-	=-
2CCCnX_ 2FFF#X_	2CC#X^^_ 2BB_	f ] >	[8CC^^:J [8GG: [8D#:	.	[8C^^J [8B	.	8G#^^ 8d 8b-	.	4.bbn	.
.	.	.	32CCLLL] 32GG] 32D#]	.	32CLLL] 32B]	.	8r	.	.	.
.	.	.	[32CC^^:J [32GG: [32D#:	.	[32C^^J [32B	.	.	.	.	.
.	.	.	16CCJ] 16GG] 16D#]	.	16CJ] 16B]	.	.	.	.	.
.	.	.	[8CC^^:J [8GG: [8D#:	.	[8C^^J [8B	.	8.G#^^ 8.d 8.a	.	.	.
.	.	.	16CCLL] 16GG] 16D#]	.	16CLL] 16B]	.	.	.	[4cc	.
.	.	.	32CCL 32GG 32D#	.	32CL 32B	.	8.r	.	.	.
.	.	.	[32CC^^:JJ [32GG: [32D#:	.	[32C^^JJ [32B	.	.	.	.	.
=	=	=	=-	=	=-	=-	=-	=-	=-	=-
8CCCnX] 8FFF#X]	8CC#X] 8BB]	]	8CCJ] 8GG] 8D#]	.	8CJ] 8B]	.	.	.	.	.
=-	=-	=-	=	=-	=	=	=	=	=-	=-
*-	*-	*-	*-	*-	*-	*-	*-	*-	*-	*-
!!!system-decoration: [(s1,s2,s3,s4)][({(s5,s6)})]
!!!RDF**kern: N = cue size
